X:928
T:The Labyrinth
S:Learned from Stuart Hardie, 20/9/08
N:In Walsh's Dance collection
Z:Nigel Gatherer
M:6/8
L:1/8
K:G
B3  BAB | c3  cBc | A2A AGA | B3  cBA  |
G3  GFG | A3  A2G | FED DEF | G2A B2c :|
d3  dcd | e2d cBc | A2A Adc | B3  cBA  |
G3  GFG | A3  A2G | FED DEF | G2A B2c :|
<end>
<start>
